public/images/doc-gallery.svg

<svg width="120" height="92" viewBox="0 0 120 92" fill="none" xmlns="http://www.w3.org/2000/svg">
<g id="doc-gallery">
<g id="Group">
<g id="Group_2">
<path id="Vector" d="M37.3502 14.35H21.7102C19.2415 14.35 17.2402 16.3513 17.2402 18.82V29.75C17.2402 32.2187 19.2415 34.22 21.7102 34.22H37.3502C39.8189 34.22 41.8202 32.2187 41.8202 29.75V18.82C41.8202 16.3513 39.8189 14.35 37.3502 14.35Z" fill="#AFE0DD"/>
<path id="Vector_2" d="M67.07 14.35H51.43C48.9612 14.35 46.96 16.3513 46.96 18.82V29.75C46.96 32.2187 48.9612 34.22 51.43 34.22H67.07C69.5387 34.22 71.54 32.2187 71.54 29.75V18.82C71.54 16.3513 69.5387 14.35 67.07 14.35Z" fill="#AFE0DD"/>
<path id="Vector_3" d="M96.7799 14.35H81.1399C78.6712 14.35 76.6699 16.3513 76.6699 18.82V29.75C76.6699 32.2187 78.6712 34.22 81.1399 34.22H96.7799C99.2486 34.22 101.25 32.2187 101.25 29.75V18.82C101.25 16.3513 99.2486 14.35 96.7799 14.35Z" fill="#AFE0DD"/>
</g>
<g id="Group_3">
<path id="Vector_4" d="M37.3502 38.36H21.7102C19.2415 38.36 17.2402 40.3613 17.2402 42.83V53.76C17.2402 56.2287 19.2415 58.23 21.7102 58.23H37.3502C39.8189 58.23 41.8202 56.2287 41.8202 53.76V42.83C41.8202 40.3613 39.8189 38.36 37.3502 38.36Z" fill="#AFE0DD"/>
<path id="Vector_5" d="M67.07 38.36H51.43C48.9612 38.36 46.96 40.3613 46.96 42.83V53.76C46.96 56.2287 48.9612 58.23 51.43 58.23H67.07C69.5387 58.23 71.54 56.2287 71.54 53.76V42.83C71.54 40.3613 69.5387 38.36 67.07 38.36Z" fill="#AFE0DD"/>
<path id="Vector_6" d="M96.7799 38.36H81.1399C78.6712 38.36 76.6699 40.3613 76.6699 42.83V53.76C76.6699 56.2287 78.6712 58.23 81.1399 58.23H96.7799C99.2486 58.23 101.25 56.2287 101.25 53.76V42.83C101.25 40.3613 99.2486 38.36 96.7799 38.36Z" fill="#AFE0DD"/>
</g>
<g id="Group_4">
<path id="Vector_7" d="M37.3502 62.36H21.7102C19.2415 62.36 17.2402 64.3613 17.2402 66.83V77.76C17.2402 80.2287 19.2415 82.23 21.7102 82.23H37.3502C39.8189 82.23 41.8202 80.2287 41.8202 77.76V66.83C41.8202 64.3613 39.8189 62.36 37.3502 62.36Z" fill="#AFE0DD"/>
<path id="Vector_8" d="M67.07 62.36H51.43C48.9612 62.36 46.96 64.3613 46.96 66.83V77.76C46.96 80.2287 48.9612 82.23 51.43 82.23H67.07C69.5387 82.23 71.54 80.2287 71.54 77.76V66.83C71.54 64.3613 69.5387 62.36 67.07 62.36Z" fill="#AFE0DD"/>
<path id="Vector_9" d="M96.7799 62.36H81.1399C78.6712 62.36 76.6699 64.3613 76.6699 66.83V77.76C76.6699 80.2287 78.6712 82.23 81.1399 82.23H96.7799C99.2486 82.23 101.25 80.2287 101.25 77.76V66.83C101.25 64.3613 99.2486 62.36 96.7799 62.36Z" fill="#AFE0DD"/>
</g>
</g>
<g id="Group_5">
<path id="Vector_10" d="M48.4402 56.27L50.1202 60.78C50.7802 62.55 52.0602 64.03 53.7202 64.93L56.2202 66.3C57.0102 66.73 57.0102 67.87 56.2202 68.31L53.7202 69.68C52.0602 70.59 50.7902 72.06 50.1202 73.83L48.4402 78.34C48.0702 79.33 46.6702 79.33 46.3002 78.34L44.6202 73.83C43.9602 72.06 42.6802 70.58 41.0202 69.68L38.5202 68.31C37.7302 67.88 37.7302 66.74 38.5202 66.3L41.0202 64.93C42.6802 64.02 43.9502 62.55 44.6202 60.78L46.3002 56.27C46.6702 55.28 48.0702 55.28 48.4402 56.27Z" fill="white"/>
<path id="Vector_11" d="M47.3699 80.07C46.4699 80.07 45.6799 79.52 45.3599 78.68L43.6799 74.17C43.0999 72.62 41.9899 71.34 40.5399 70.55L38.0399 69.18C37.3499 68.8 36.9199 68.08 36.9199 67.3C36.9199 66.52 37.3499 65.79 38.0399 65.42L40.5399 64.05C41.9899 63.26 43.0999 61.97 43.6799 60.43L45.3599 55.92C45.6799 55.07 46.4699 54.53 47.3699 54.53C48.2699 54.53 49.0599 55.08 49.3799 55.92L51.0599 60.43C51.6399 61.98 52.7499 63.26 54.1999 64.05L56.6999 65.42C57.3899 65.8 57.8199 66.52 57.8199 67.3C57.8199 68.08 57.3899 68.8 56.7099 69.18L54.2099 70.55C52.7599 71.34 51.6499 72.63 51.0699 74.17L49.3899 78.67C49.0699 79.52 48.2899 80.06 47.3799 80.06L47.3699 80.07ZM47.3699 56.53C47.2699 56.53 47.2499 56.59 47.2299 56.62L45.5499 61.12C44.7999 63.12 43.3699 64.78 41.4999 65.8L38.9999 67.17C38.9999 67.17 38.9199 67.21 38.9199 67.3C38.9199 67.39 38.9799 67.42 38.9999 67.43L41.4999 68.8C43.3699 69.82 44.8099 71.48 45.5499 73.48L47.2299 77.98C47.2299 77.98 47.2699 78.07 47.3699 78.07C47.4699 78.07 47.4899 78.01 47.5099 77.98L49.1899 73.48C49.9299 71.48 51.3699 69.82 53.2399 68.8L55.7399 67.43C55.7399 67.43 55.8099 67.39 55.8099 67.3C55.8099 67.21 55.7499 67.18 55.7299 67.17L53.2299 65.8C51.3599 64.78 49.9199 63.12 49.1799 61.12L47.4999 56.61C47.4999 56.61 47.4599 56.52 47.3599 56.52L47.3699 56.53Z" fill="#13706D"/>
</g>
<g id="Group_6">
<path id="Vector_12" d="M40.7107 23.33L41.9607 26.69C42.4507 28.01 43.4107 29.11 44.6407 29.79L46.5107 30.81C47.1007 31.13 47.1007 31.98 46.5107 32.31L44.6407 33.33C43.4007 34.01 42.4507 35.11 41.9607 36.43L40.7107 39.79C40.4307 40.53 39.3907 40.53 39.1107 39.79L37.8607 36.43C37.3707 35.11 36.4107 34.01 35.1807 33.33L33.3107 32.31C32.7207 31.99 32.7207 31.14 33.3107 30.81L35.1807 29.79C36.4207 29.11 37.3707 28.01 37.8607 26.69L39.1107 23.33C39.3907 22.59 40.4307 22.59 40.7107 23.33Z" fill="white"/>
<path id="Vector_13" d="M39.9104 41.35C39.1304 41.35 38.4503 40.88 38.1703 40.14L36.9203 36.78C36.5103 35.68 35.7203 34.77 34.6903 34.21L32.8204 33.19C32.2204 32.86 31.8604 32.24 31.8604 31.56C31.8604 30.88 32.2304 30.26 32.8204 29.94L34.6903 28.92C35.7203 28.36 36.5103 27.45 36.9203 26.35L38.1703 22.99C38.4403 22.26 39.1304 21.78 39.9104 21.78C40.6904 21.78 41.3704 22.25 41.6504 22.99L42.9004 26.35C43.3104 27.45 44.1004 28.36 45.1304 28.92L47.0004 29.94C47.5904 30.26 47.9604 30.89 47.9604 31.56C47.9604 32.24 47.5904 32.86 47.0004 33.19L45.1304 34.21C44.1004 34.77 43.3104 35.68 42.9004 36.78L41.6504 40.14C41.3804 40.87 40.6904 41.35 39.9104 41.35ZM34.0204 31.56L35.6504 32.45C37.1004 33.24 38.2104 34.53 38.7904 36.08L39.9104 39.08L41.0303 36.08C41.6103 34.53 42.7203 33.25 44.1703 32.45L45.8004 31.56L44.1703 30.67C42.7203 29.88 41.6103 28.59 41.0303 27.04L39.9104 24.04L38.7904 27.04C38.2104 28.59 37.1004 29.87 35.6504 30.67L34.0204 31.56Z" fill="#13706D"/>
</g>
<g id="Group_7">
<path id="Vector_14" d="M82.4297 11L84.8397 26.63C85.3297 29.79 87.7297 32.3 90.8597 32.94L101.59 35.11C103.15 35.42 103.15 37.65 101.59 37.96L90.8597 40.13C87.7297 40.76 85.3297 43.28 84.8397 46.44L82.4297 62.07C82.1797 63.72 79.8097 63.72 79.5497 62.07L77.1397 46.44C76.6497 43.28 74.2497 40.77 71.1197 40.13L60.3897 37.96C58.8297 37.65 58.8297 35.42 60.3897 35.11L71.1197 32.94C74.2497 32.31 76.6497 29.79 77.1397 26.63L79.5497 11C79.7997 9.34998 82.1697 9.34998 82.4297 11Z" fill="white"/>
<path id="Vector_15" d="M80.9897 64.31C79.7497 64.31 78.7497 63.45 78.5597 62.23L76.1497 46.6C75.7297 43.87 73.6297 41.67 70.9197 41.12L60.1897 38.95C59.0097 38.71 58.2197 37.74 58.2197 36.54C58.2197 35.34 59.0097 34.37 60.1897 34.13L70.9197 31.96C73.6297 31.41 75.7297 29.21 76.1497 26.48L78.5597 10.85C78.7497 9.61999 79.7497 8.76999 80.9897 8.76999C82.2297 8.76999 83.2297 9.62999 83.4197 10.85L85.8297 26.48C86.2497 29.21 88.3497 31.41 91.0597 31.96L101.79 34.13C102.97 34.37 103.76 35.34 103.76 36.54C103.76 37.74 102.97 38.71 101.79 38.95L91.0597 41.12C88.3497 41.67 86.2497 43.87 85.8297 46.6L83.4197 62.23C83.2297 63.46 82.2297 64.31 80.9897 64.31ZM80.9897 10.76C80.8397 10.76 80.5897 10.81 80.5397 11.15L78.1297 26.78C77.5797 30.33 74.8497 33.2 71.3197 33.91L60.5897 36.08C60.2697 36.14 60.2197 36.39 60.2197 36.53C60.2197 36.67 60.2697 36.91 60.5897 36.98L71.3197 39.15C74.8397 39.86 77.5797 42.73 78.1297 46.28L80.5397 61.91C80.5897 62.25 80.8397 62.3 80.9897 62.3C81.1397 62.3 81.3897 62.25 81.4397 61.91L83.8497 46.28C84.3997 42.73 87.1297 39.86 90.6597 39.15L101.39 36.98C101.71 36.92 101.76 36.67 101.76 36.53C101.76 36.39 101.71 36.15 101.39 36.08L90.6597 33.91C87.1397 33.2 84.3997 30.33 83.8497 26.78L81.4397 11.15C81.3897 10.81 81.1397 10.76 80.9897 10.76Z" fill="#13706D"/>
</g>
</g>
</svg>

<svg xmlns="http://www.w3.org/2000/svg" width="120" height="92" fill="none"><path fill="#AFE0DD" d="M37.35 14.35H21.71a4.47 4.47 0 0 0-4.47 4.47v10.93a4.47 4.47 0 0 0 4.47 4.47h15.64a4.47 4.47 0 0 0 4.47-4.47V18.82a4.47 4.47 0 0 0-4.47-4.47m29.72 0H51.43a4.47 4.47 0 0 0-4.47 4.47v10.93a4.47 4.47 0 0 0 4.47 4.47h15.64a4.47 4.47 0 0 0 4.47-4.47V18.82a4.47 4.47 0 0 0-4.47-4.47m29.71 0H81.14a4.47 4.47 0 0 0-4.47 4.47v10.93a4.47 4.47 0 0 0 4.47 4.47h15.64a4.47 4.47 0 0 0 4.47-4.47V18.82a4.47 4.47 0 0 0-4.47-4.47M37.35 38.36H21.71a4.47 4.47 0 0 0-4.47 4.47v10.93a4.47 4.47 0 0 0 4.47 4.47h15.64a4.47 4.47 0 0 0 4.47-4.47V42.83a4.47 4.47 0 0 0-4.47-4.47m29.72 0H51.43a4.47 4.47 0 0 0-4.47 4.47v10.93a4.47 4.47 0 0 0 4.47 4.47h15.64a4.47 4.47 0 0 0 4.47-4.47V42.83a4.47 4.47 0 0 0-4.47-4.47m29.71 0H81.14a4.47 4.47 0 0 0-4.47 4.47v10.93a4.47 4.47 0 0 0 4.47 4.47h15.64a4.47 4.47 0 0 0 4.47-4.47V42.83a4.47 4.47 0 0 0-4.47-4.47m-59.43 24H21.71a4.47 4.47 0 0 0-4.47 4.47v10.93a4.47 4.47 0 0 0 4.47 4.47h15.64a4.47 4.47 0 0 0 4.47-4.47V66.83a4.47 4.47 0 0 0-4.47-4.47m29.72 0H51.43a4.47 4.47 0 0 0-4.47 4.47v10.93a4.47 4.47 0 0 0 4.47 4.47h15.64a4.47 4.47 0 0 0 4.47-4.47V66.83a4.47 4.47 0 0 0-4.47-4.47m29.71 0H81.14a4.47 4.47 0 0 0-4.47 4.47v10.93a4.47 4.47 0 0 0 4.47 4.47h15.64a4.47 4.47 0 0 0 4.47-4.47V66.83a4.47 4.47 0 0 0-4.47-4.47"/><path fill="#fff" d="m48.44 56.27 1.68 4.51a7.84 7.84 0 0 0 3.6 4.15l2.5 1.37c.79.43.79 1.57 0 2.01l-2.5 1.37a7.92 7.92 0 0 0-3.6 4.15l-1.68 4.51c-.37.99-1.77.99-2.14 0l-1.68-4.51a7.84 7.84 0 0 0-3.6-4.15l-2.5-1.37c-.79-.43-.79-1.57 0-2.01l2.5-1.37a7.92 7.92 0 0 0 3.6-4.15l1.68-4.51c.37-.99 1.77-.99 2.14 0"/><path fill="#13706D" d="M47.37 80.07c-.9 0-1.69-.55-2.01-1.39l-1.68-4.51a6.84 6.84 0 0 0-3.14-3.62l-2.5-1.37c-.69-.38-1.12-1.1-1.12-1.88s.43-1.51 1.12-1.88l2.5-1.37a6.88 6.88 0 0 0 3.14-3.62l1.68-4.51c.32-.85 1.11-1.39 2.01-1.39s1.69.55 2.01 1.39l1.68 4.51a6.84 6.84 0 0 0 3.14 3.62l2.5 1.37c.69.38 1.12 1.1 1.12 1.88s-.43 1.5-1.11 1.88l-2.5 1.37a6.88 6.88 0 0 0-3.14 3.62l-1.68 4.5c-.32.85-1.1 1.39-2.01 1.39zm0-23.54c-.1 0-.12.06-.14.09l-1.68 4.5c-.75 2-2.18 3.66-4.05 4.68L39 67.17s-.08.04-.08.13.06.12.08.13l2.5 1.37a8.82 8.82 0 0 1 4.05 4.68l1.68 4.5s.04.09.14.09.12-.06.14-.09l1.68-4.5c.74-2 2.18-3.66 4.05-4.68l2.5-1.37s.07-.04.07-.13-.06-.12-.08-.13l-2.5-1.37a8.82 8.82 0 0 1-4.05-4.68l-1.68-4.51s-.04-.09-.14-.09z"/><path fill="#fff" d="m40.71 23.33 1.25 3.36a5.9 5.9 0 0 0 2.68 3.1l1.87 1.02c.59.32.59 1.17 0 1.5l-1.87 1.02a5.86 5.86 0 0 0-2.68 3.1l-1.25 3.36c-.28.74-1.32.74-1.6 0l-1.25-3.36a5.9 5.9 0 0 0-2.68-3.1l-1.87-1.02c-.59-.32-.59-1.17 0-1.5l1.87-1.02a5.86 5.86 0 0 0 2.68-3.1l1.25-3.36c.28-.74 1.32-.74 1.6 0"/><path fill="#13706D" d="M39.91 41.35c-.78 0-1.46-.47-1.74-1.21l-1.25-3.36c-.41-1.1-1.2-2.01-2.23-2.57l-1.87-1.02c-.6-.33-.96-.95-.96-1.63s.37-1.3.96-1.62l1.87-1.02a4.85 4.85 0 0 0 2.23-2.57l1.25-3.36c.27-.73.96-1.21 1.74-1.21s1.46.47 1.74 1.21l1.25 3.36c.41 1.1 1.2 2.01 2.23 2.57L47 29.94c.59.32.96.95.96 1.62 0 .68-.37 1.3-.96 1.63l-1.87 1.02a4.85 4.85 0 0 0-2.23 2.57l-1.25 3.36c-.27.73-.96 1.21-1.74 1.21m-5.89-9.79 1.63.89c1.45.79 2.56 2.08 3.14 3.63l1.12 3 1.12-3a6.9 6.9 0 0 1 3.14-3.63l1.63-.89-1.63-.89a6.86 6.86 0 0 1-3.14-3.63l-1.12-3-1.12 3a6.9 6.9 0 0 1-3.14 3.63z"/><path fill="#fff" d="m82.43 11 2.41 15.63a7.63 7.63 0 0 0 6.02 6.31l10.73 2.17c1.56.31 1.56 2.54 0 2.85l-10.73 2.17a7.62 7.62 0 0 0-6.02 6.31l-2.41 15.63c-.25 1.65-2.62 1.65-2.88 0l-2.41-15.63a7.63 7.63 0 0 0-6.02-6.31l-10.73-2.17c-1.56-.31-1.56-2.54 0-2.85l10.73-2.17a7.62 7.62 0 0 0 6.02-6.31L79.55 11c.25-1.65 2.62-1.65 2.88 0"/><path fill="#13706D" d="M80.99 64.31a2.42 2.42 0 0 1-2.43-2.08L76.15 46.6a6.64 6.64 0 0 0-5.23-5.48l-10.73-2.17c-1.18-.24-1.97-1.21-1.97-2.41s.79-2.17 1.97-2.41l10.73-2.17a6.64 6.64 0 0 0 5.23-5.48l2.41-15.63c.19-1.23 1.19-2.08 2.43-2.08s2.24.86 2.43 2.08l2.41 15.63a6.64 6.64 0 0 0 5.23 5.48l10.73 2.17c1.18.24 1.97 1.21 1.97 2.41s-.79 2.17-1.97 2.41l-10.73 2.17a6.64 6.64 0 0 0-5.23 5.48l-2.41 15.63c-.19 1.23-1.19 2.08-2.43 2.08m0-53.55c-.15 0-.4.05-.45.39l-2.41 15.63a8.64 8.64 0 0 1-6.81 7.13l-10.73 2.17c-.32.06-.37.31-.37.45s.05.38.37.45l10.73 2.17c3.52.71 6.26 3.58 6.81 7.13l2.41 15.63c.05.34.3.39.45.39s.4-.05.45-.39l2.41-15.63a8.64 8.64 0 0 1 6.81-7.13l10.73-2.17c.32-.06.37-.31.37-.45s-.05-.38-.37-.45l-10.73-2.17a8.66 8.66 0 0 1-6.81-7.13l-2.41-15.63c-.05-.34-.3-.39-.45-.39"/></svg>
